static/linktree.svg

<svg xmlns="http://www.w3.org/2000/svg" xmlns:xlink="http://www.w3.org/1999/xlink" viewBox="0,0,256,256" width="100px" height="100px" fill-rule="nonzero"><g fill="#ffffff" fill-rule="nonzero" stroke="none" stroke-width="1" stroke-linecap="butt" stroke-linejoin="miter" stroke-miterlimit="10" stroke-dasharray="" stroke-dashoffset="0" font-family="none" font-weight="none" font-size="none" text-anchor="none" style="mix-blend-mode: normal"><g transform="scale(5.33333,5.33333)"><path d="M22.25391,3.5c-1.36359,0 -2.5,1.13641 -2.5,2.5c-0.00775,0.73674 0.52066,1.37006 1.24687,1.49442c0.72621,0.12435 1.43524,-0.29707 1.67305,-0.99442h2.57422v5.30469c0,1.05608 0.69975,1.96718 1.55859,2.31641c0.85884,0.34923 1.99523,0.18573 2.73242,-0.57031l3.54883,-3.64062l1.54102,1.58008l-3.73242,3.55274c-0.76927,0.73163 -0.94513,1.8734 -0.59961,2.73828c0.34552,0.86488 1.26058,1.57227 2.32227,1.57227h5.34766v2.22852h-5.43945c-1.05646,0 -1.96734,0.70074 -2.31641,1.56055c-0.34907,0.85981 -0.18334,1.99603 0.57422,2.73242l3.83594,3.72656l-1.53516,1.54883l-1.61133,-1.61914c-0.37287,-0.40295 -0.93606,-0.57004 -1.46836,-0.43563c-0.53229,0.13441 -0.94865,0.54885 -1.08551,1.08052c-0.13686,0.53167 0.02763,1.09563 0.42886,1.47035l1.96484,1.97656c0.96461,0.96955 2.583,0.96936 3.54688,-0.00195l2.24609,-2.26367c0.96714,-0.97454 0.95052,-2.59808 -0.0332,-3.55469l-3.31445,-3.2207h4.70703c1.36359,0 2.5,-1.13641 2.5,-2.5v-3.22852c0,-1.36359 -1.13641,-2.5 -2.5,-2.5h-4.5957l3.19336,-3.03906c0.99484,-0.94793 1.02585,-2.57253 0.06641,-3.55664c-0.00065,0 -0.0013,0 -0.00195,0l-2.25195,-2.30859c-0.96838,-0.99303 -2.61298,-0.99177 -3.58008,0l-3.04883,3.12695v-4.57617c0,-1.36359 -1.13641,-2.5 -2.5,-2.5zM14.91602,6.69336c-0.65419,0 -1.30915,0.24873 -1.79297,0.74609l-2.25781,2.32227c-0.95593,0.98304 -0.92459,2.6066 0.06836,3.55273l3.20508,3.05469h-4.60547c-1.36359,0 -2.5,1.1364 -2.5,2.5v3.23047c0,1.3636 1.13641,2.5 2.5,2.5h4.69727l-3.3125,3.2168c-0.98816,0.95851 -0.99861,2.58733 -0.02539,3.56055l2.25195,2.25391c0.96609,0.96609 2.57774,0.9624 3.54102,-0.00586l7.31641,-7.35156l1.51563,1.52344c0.37287,0.40295 0.93606,0.57004 1.46836,0.43563c0.53229,-0.13441 0.94865,-0.54885 1.08551,-1.08052c0.13686,-0.53167 -0.02763,-1.09563 -0.42886,-1.47035l-1.86914,-1.87891c-0.96461,-0.96955 -2.58031,-0.96955 -3.54492,0l-7.31641,7.35156l-1.53906,-1.53906l3.83203,-3.72266c0,-0.00065 0,-0.0013 0,-0.00195c0.75756,-0.73639 0.92329,-1.87261 0.57422,-2.73242c-0.34907,-0.85981 -1.25994,-1.55859 -2.31641,-1.55859h-5.42969v-2.23047h5.35352c1.06131,0 1.97433,-0.70613 2.32031,-1.57031c0.34598,-0.86419 0.17409,-2.00572 -0.59375,-2.73828c-0.00065,-0.00065 -0.0013,-0.0013 -0.00195,-0.00195l-3.74219,-3.56836l1.54688,-1.5918l3.54687,3.64844c0.73693,0.75694 1.87318,0.9211 2.73242,0.57227c0.85924,-0.34884 1.56055,-1.25977 1.56055,-2.31641v-0.73828c0.00888,-0.7507 -0.53855,-1.39237 -1.28127,-1.50186c-0.74273,-0.10949 -1.45202,0.34693 -1.66013,1.06827l-3.10547,-3.19141c-0.48382,-0.49736 -1.13878,-0.74609 -1.79297,-0.74609zM22.23828,29.08984c-1.36359,0 -2.5,1.13641 -2.5,2.5v2.6875c-0.00765,0.54095 0.27656,1.04412 0.74381,1.31683c0.46725,0.27271 1.04514,0.27271 1.51238,0c0.46725,-0.27271 0.75146,-0.77588 0.74381,-1.31683v-2.1875h2.49609v9.41016h-2.49609v-1.56445c0.00765,-0.54095 -0.27656,-1.04412 -0.74381,-1.31683c-0.46725,-0.27271 -1.04514,-0.27271 -1.51238,0c-0.46725,0.27271 -0.75146,0.77588 -0.74381,1.31683v2.06445c0,1.36359 1.13641,2.5 2.5,2.5h3.49609c1.36359,0 2.5,-1.13641 2.5,-2.5v-10.41016c0,-1.36359 -1.13641,-2.5 -2.5,-2.5z"></path></g></g></svg>

<svg width="48" height="48" viewBox="0 0 48 48" fill="none" xmlns="http://www.w3.org/2000/svg">
<path d="M22.2539 3.5C20.8903 3.5 19.7539 4.63641 19.7539 6C19.7502 6.35666 19.8736 6.70298 20.1021 6.97685C20.3306 7.25072 20.6492 7.43422 21.0008 7.49442C21.3523 7.55462 21.7138 7.48758 22.0205 7.30535C22.3271 7.12311 22.5587 6.83759 22.6738 6.5H25.248V11.8047C25.248 12.8608 25.9478 13.7719 26.8066 14.1211C27.6655 14.4703 28.8019 14.3068 29.5391 13.5508L33.0879 9.91016L34.6289 11.4902L30.8965 15.043C30.1272 15.7746 29.9514 16.9164 30.2969 17.7812C30.6424 18.6461 31.5575 19.3535 32.6191 19.3535H37.9668V21.582H32.5273C31.4709 21.582 30.56 22.2828 30.2109 23.1426C29.8619 24.0024 30.0276 25.1386 30.7852 25.875L34.6211 29.6016L33.0859 31.1504L31.4746 29.5312C31.3377 29.3833 31.1723 29.2644 30.9884 29.1818C30.8046 29.0991 30.6059 29.0544 30.4043 29.0503C30.2028 29.0461 30.0024 29.0827 29.8153 29.1577C29.6282 29.2327 29.4581 29.3447 29.3152 29.4869C29.1723 29.6291 29.0596 29.7987 28.9837 29.9855C28.9078 30.1723 28.8704 30.3724 28.8736 30.574C28.8768 30.7756 28.9206 30.9744 29.0024 31.1587C29.0842 31.343 29.2023 31.5089 29.3496 31.6465L31.3145 33.623C32.2791 34.5926 33.8975 34.5924 34.8613 33.6211L37.1074 31.3574C38.0746 30.3829 38.0579 28.7593 37.0742 27.8027L33.7598 24.582H38.4668C39.8304 24.582 40.9668 23.4456 40.9668 22.082V18.8535C40.9668 17.4899 39.8304 16.3535 38.4668 16.3535H33.8711L37.0645 13.3145C38.0593 12.3665 38.0903 10.7419 37.1309 9.75781H37.1289L34.877 7.44922C33.9086 6.45619 32.264 6.45745 31.2969 7.44922L28.248 10.5762V6C28.248 4.63641 27.1116 3.5 25.748 3.5H22.2539ZM14.916 6.69336C14.2618 6.69336 13.6069 6.94209 13.123 7.43945L10.8652 9.76172C9.9093 10.7448 9.94064 12.3683 10.9336 13.3145L14.1387 16.3691H9.5332C8.16961 16.3691 7.0332 17.5055 7.0332 18.8691V22.0996C7.0332 23.4632 8.16961 24.5996 9.5332 24.5996H14.2305L10.918 27.8164C9.92981 28.7749 9.91936 30.4037 10.8926 31.377L13.1445 33.6309C14.1106 34.5969 15.7223 34.5933 16.6855 33.625L24.002 26.2734L25.5176 27.7969C25.6545 27.9448 25.8198 28.0637 26.0037 28.1463C26.1876 28.229 26.3863 28.2737 26.5879 28.2778C26.7894 28.282 26.9897 28.2455 27.1769 28.1704C27.364 28.0954 27.5341 27.9834 27.677 27.8412C27.8199 27.699 27.9326 27.5294 28.0085 27.3426C28.0844 27.1559 28.1218 26.9557 28.1186 26.7541C28.1154 26.5525 28.0716 26.3537 27.9898 26.1694C27.908 25.9851 27.7899 25.8192 27.6426 25.6816L25.7734 23.8027C24.8088 22.8332 23.1931 22.8332 22.2285 23.8027L14.9121 31.1543L13.373 29.6152L17.2051 25.8926V25.8906C17.9626 25.1542 18.1284 24.018 17.7793 23.1582C17.4302 22.2984 16.5194 21.5996 15.4629 21.5996H10.0332V19.3691H15.3867C16.448 19.3691 17.3611 18.663 17.707 17.7988C18.053 16.9346 17.8811 15.7931 17.1133 15.0605L17.1113 15.0586L13.3691 11.4902L14.916 9.89844L18.4629 13.5469C19.1998 14.3038 20.3361 14.468 21.1953 14.1191C22.0546 13.7703 22.7559 12.8594 22.7559 11.8027V11.0645C22.7602 10.7015 22.6327 10.3492 22.3971 10.0731C22.1615 9.7969 21.8337 9.61553 21.4746 9.56259C21.1155 9.50965 20.7493 9.58873 20.444 9.78517C20.1388 9.98161 19.9151 10.2821 19.8145 10.6309L16.709 7.43945C16.2252 6.94209 15.5702 6.69336 14.916 6.69336ZM22.2383 29.0898C20.8747 29.0898 19.7383 30.2262 19.7383 31.5898V34.2773C19.7355 34.4761 19.7722 34.6735 19.8463 34.8579C19.9204 35.0424 20.0305 35.2102 20.17 35.3518C20.3096 35.4933 20.4759 35.6058 20.6593 35.6825C20.8427 35.7592 21.0395 35.7987 21.2383 35.7987C21.4371 35.7987 21.6339 35.7592 21.8173 35.6825C22.0006 35.6058 22.167 35.4933 22.3065 35.3518C22.4461 35.2102 22.5561 35.0424 22.6302 34.8579C22.7044 34.6735 22.7411 34.4761 22.7383 34.2773V32.0898H25.2344V41.5H22.7383V39.9355C22.7411 39.7368 22.7044 39.5394 22.6302 39.355C22.5561 39.1705 22.4461 39.0026 22.3065 38.8611C22.167 38.7195 22.0006 38.6071 21.8173 38.5304C21.6339 38.4537 21.4371 38.4142 21.2383 38.4142C21.0395 38.4142 20.8427 38.4537 20.6593 38.5304C20.4759 38.6071 20.3096 38.7195 20.17 38.8611C20.0305 39.0026 19.9204 39.1705 19.8463 39.355C19.7722 39.5394 19.7355 39.7368 19.7383 39.9355V42C19.7383 43.3636 20.8747 44.5 22.2383 44.5H25.7344C27.098 44.5 28.2344 43.3636 28.2344 42V31.5898C28.2344 30.2262 27.098 29.0898 25.7344 29.0898H22.2383Z" fill="white"/>
</svg>
